X: 14
T: Lilting Banshee, The
Z: Karson
S: https://thesession.org/tunes/60#setting52596
R: jig
M: 6/8
L: 1/8
K: Ador
|:EAA EAA | B(AB) G2A|Bee edB | d(ef) g(fg)|
eAA eAA | B(AB) G2A|Bee edB |1 d(BA) A2G :|2 d(BA) A2 d ||
|: eaa age | d(BA) G2A|Bee edB | d(ef) g(fg)|
eaa age | d(BA) G2A|Bee edB |1 d(BA) A2 d :|2 d(BA) A2G ||

%-------------------- TUNE SEPARATOR --------------------%

